X: 2418
T: The BUTCHER'S BOY
R: Clog Dance.
%R: _
B: James Kerr "Merry Melodies" v.2 p.47 #418
Z: 2016 John Chambers <jc:trillian.mit.edu>
N: The last A in strain 2's first ending duplicates the pickup note, and should be deleted to fix the rhythm.
M: C
L: 1/8
K: D
uA |\
vd2(Ad) BdAd | d2AA Be ze |\
d2(Ad) BdAd | gefd Bdz H:|\
A |:\
fa za a2 zf |
gefd ed z \
[1 A | fa za d'2 za | gefd ed zA :|\
[2 d | gg zg gdgb | gfeg f"_D.C."dz |]

%%sep 1 1 500
%%sep 1 1 500

